X:127
T:My Father's Day Jig
R:jig
C:Bruce Osborne - July 1994
Z:abc by bosborne@kos.net
M:6/8
L:1/8
K:Dmaj
F/E/|DFA BAF|dcd AFA|dcd fed|cee e2 f|\
gfg ege|cec A2 A|Ace a^ga|fdB AFE|\
DFA BAF|dcd AFA|dcd fed|cee e2 f|\
gfg ege|cec ABc|cBA GFE|D3 -D2
|:F/G/|AFA BAG|FAd def|gec Ace|aba fdB|\
AFA BAG|FAd def|gec ABc|d3 -d2:|
